swiss/communes/3231.svg

<?xml version="1.0" encoding="UTF-8" standalone="no"?>
<!-- Created with Inkscape (http://www.inkscape.org/) -->
<svg
   xmlns:svg="http://www.w3.org/2000/svg"
   xmlns="http://www.w3.org/2000/svg"
   version="1.0"
   width="242.58572"
   height="286.98773"
   id="svg2810">
  <defs
     id="defs2812">
    <clipPath
       id="clipPath4039">
      <path
         d="M -0.138,841.445 L 595.138,841.445 L 595.138,-0.445 L -0.138,-0.445 L -0.138,841.445 z"
         id="path4041" />
    </clipPath>
    <clipPath
       id="clipPath4045">
      <path
         d="M 0.029999,841.95 L 595.29,841.95 L 595.29,0.03 L 0.029999,0.03 L 0.029999,841.95 z"
         id="path4047" />
    </clipPath>
    <clipPath
       id="clipPath23">
      <path
         d="M 0.029999,841.95 L 595.29,841.95 L 595.29,0.03 L 0.029999,0.03 L 0.029999,841.95 z"
         id="path25" />
    </clipPath>
    <clipPath
       id="clipPath17">
      <path
         d="M 0,841.89 L 595.276,841.89 L 595.276,0 L 0,0 L 0,841.89 z"
         id="path19" />
    </clipPath>
  </defs>
  <path
     d="M 1.0625455,104.41138 L 238.08391,104.41138 L 238.08391,0.90182293 L 0.49414553,1.4823929 L 1.0625455,104.41138 z"
     id="path3216"
     style="fill:#ffffff;fill-rule:evenodd;stroke:none;stroke-width:1px;stroke-linecap:butt;stroke-linejoin:miter;stroke-opacity:1" />
  <path
     d="M 238.67077,3.0485436 L 238.67077,170.45008 C 238.67077,233.84115 185.43223,285.23626 119.79491,285.23626 C 54.115061,285.23626 0.88506043,233.84115 0.88506043,170.45008 L 0.88506043,3.0485436 L 238.67077,3.0485436 z"
     id="path3221"
     style="fill:#0066b3;fill-opacity:1;stroke:none;stroke-width:4.03157187;stroke-linecap:butt;stroke-linejoin:miter;stroke-miterlimit:4;stroke-dasharray:none;stroke-opacity:1" />
  <path
     d="M 39.082105,105.9874 C 67.039455,178.65004 136.22117,155.3826 156.01831,122.13191 C 174.43919,90.629935 166.71661,63.439198 140.77453,42.312271 C 121.44047,26.566834 85.430855,30.169331 88.208595,26.905723 C 173.05794,1.5632625 217.71493,81.305141 192.05322,142.73242 C 158.07281,204.0367 42.259205,194.45477 37.286315,114.48435 C 37.148195,112.26333 38.769035,103.56862 39.082105,105.9874 z"
     id="path3190"
     style="fill:#231f20;fill-opacity:1;fill-rule:evenodd;stroke:#231f20;stroke-width:2;stroke-linecap:round;stroke-linejoin:round;stroke-miterlimit:4;stroke-dasharray:none;stroke-opacity:1" />
  <path
     d="M 93.615015,26.848185 C 164.08857,27.367064 183.56056,92.711182 152.55919,129.02662 C 124.5578,161.95701 57.839855,169.3669 39.768365,109.22074 C 39.241895,107.79749 38.268065,107.63352 37.886085,110.56673 C 37.518665,113.38818 37.114745,116.74373 38.571235,122.24077 C 59.878215,202.65694 164.56745,195.18711 189.12871,142.8749 C 221.98089,75.801992 160.45353,3.7935304 93.615015,26.848185 z"
     id="path3192"
     style="fill:#ffff00;fill-opacity:1;fill-rule:evenodd;stroke:#231f20;stroke-width:1px;stroke-linecap:butt;stroke-linejoin:miter;stroke-opacity:1" />
  <path
     d="M 20.957545,232.66641 C 38.002515,221.93823 50.147795,210.93362 55.830135,197.8389 C 60.908005,186.13717 65.691345,173.4987 70.145715,161.75363 C 74.301415,150.79608 78.960425,143.56722 81.725855,132.69996 C 85.683865,117.1462 97.766775,109.49877 112.51036,98.317255 C 113.5738,97.510753 118.29589,93.0421 118.44656,100.75158 C 122.62916,123.93423 162.13211,187.86335 177.07055,187.79635 C 181.88773,191.1426 178.95956,195.3935 182.45211,201.46312 C 189.75672,224.66765 200.82577,237.6544 213.803,245.46184 C 166.67788,257.91815 86.194437,263.71683 20.957545,232.66641 z"
     id="path3194"
     style="fill:#231f20;fill-opacity:1;fill-rule:evenodd;stroke:#231f20;stroke-width:1px;stroke-linecap:butt;stroke-linejoin:miter;stroke-opacity:1" />
  <path
     d="M 112.49072,100.91364 C 102.24393,107.92736 90.313395,115.94226 85.077935,128.2123 C 81.517045,143.22857 74.626815,152.79439 70.693385,164.13095 C 65.683205,178.57084 61.414265,191.82768 55.378525,203.32573 C 48.006155,217.37003 32.872615,227.24362 24.395445,233.04624 C 59.032245,290.9372 127.76622,295.04237 172.81918,270.62897 L 117.1342,105.91905 C 116.3509,103.1038 118.94455,95.223115 112.49072,100.91364 z"
     id="path3196"
     style="fill:#ffffff;fill-rule:evenodd;stroke:#231f20;stroke-width:1px;stroke-linecap:butt;stroke-linejoin:miter;stroke-opacity:1" />
  <path
     d="M 167.6804,275.99002 C 188.34068,270.33116 203.32996,255.60319 212.12356,246.54643 C 198.48981,237.26912 185.50412,223.44479 178.51342,195.71457 C 178.11489,189.89479 175.52279,189.92455 172.95802,189.8814 C 170.25509,188.46721 167.23123,186.90089 164.87976,184.26104 C 150.20671,167.78846 127.60865,132.41022 115.18192,99.606245 C 114.39964,158.94667 136.23282,168.87853 138.79235,206.26982 C 139.47676,231.47595 144.38411,255.8898 167.6804,275.99002 z"
     id="path3198"
     style="fill:#828f97;fill-opacity:1;fill-rule:evenodd;stroke:none;stroke-width:1px;stroke-linecap:butt;stroke-linejoin:miter;stroke-opacity:1" />
  <path
     d="M 240.18572,2.4000001 L 240.18572,169.80154 C 240.18572,233.19261 186.94718,284.58772 121.30986,284.58772 C 55.63001,284.58772 2.4000001,233.19261 2.4000001,169.80154 L 2.4000001,2.4000001 L 240.18572,2.4000001 z"
     id="path3294"
     style="fill:none;fill-opacity:1;stroke:#231f20;stroke-width:4.80000019;stroke-linecap:butt;stroke-linejoin:miter;stroke-miterlimit:4;stroke-dasharray:none;stroke-opacity:1" />
</svg>

<svg xmlns="http://www.w3.org/2000/svg" version="1.0" width="242.586" height="286.988"><path d="M1.063 104.411h237.02V.901L.495 1.483l.569 102.93z" style="fill:#fff;fill-rule:evenodd;stroke:none;stroke-width:1px;stroke-linecap:butt;stroke-linejoin:miter;stroke-opacity:1"/><path d="M238.67 3.049V170.45c0 63.391-53.238 114.786-118.875 114.786-65.68 0-118.91-51.395-118.91-114.786V3.05h237.786z" style="fill:#0066b3;fill-opacity:1;stroke:none;stroke-width:4.03157187;stroke-linecap:butt;stroke-linejoin:miter;stroke-miterlimit:4;stroke-dasharray:none;stroke-opacity:1"/><path d="M39.082 105.987c27.957 72.663 97.14 49.396 116.936 16.145 18.421-31.502 10.699-58.693-15.243-79.82C121.44 26.567 85.43 30.17 88.209 26.906c84.849-25.343 129.506 54.4 103.844 115.826-33.98 61.305-149.794 51.723-154.767-28.248-.138-2.22 1.483-10.915 1.796-8.497z" style="fill:#231f20;fill-opacity:1;fill-rule:evenodd;stroke:#231f20;stroke-width:2;stroke-linecap:round;stroke-linejoin:round;stroke-miterlimit:4;stroke-dasharray:none;stroke-opacity:1"/><path d="M93.615 26.848c70.474.52 89.946 65.863 58.944 102.179-28.001 32.93-94.72 40.34-112.79-19.806-.527-1.424-1.5-1.587-1.883 1.346-.367 2.821-.771 6.177.685 11.674 21.307 80.416 125.996 72.946 150.558 20.634C221.98 75.802 160.454 3.794 93.615 26.848z" style="fill:#ff0;fill-opacity:1;fill-rule:evenodd;stroke:#231f20;stroke-width:1px;stroke-linecap:butt;stroke-linejoin:miter;stroke-opacity:1"/><path d="M20.958 232.666c17.045-10.728 29.19-21.732 34.872-34.827 5.078-11.702 9.861-24.34 14.316-36.085 4.155-10.958 8.814-18.187 11.58-29.054 3.958-15.554 16.04-23.201 30.784-34.383 1.064-.806 5.786-5.275 5.937 2.435 4.182 23.182 43.685 87.111 58.624 87.044 4.817 3.347 1.889 7.597 5.381 13.667 7.305 23.205 18.374 36.191 31.351 43.999-47.125 12.456-127.609 18.255-192.845-12.796z" style="fill:#231f20;fill-opacity:1;fill-rule:evenodd;stroke:#231f20;stroke-width:1px;stroke-linecap:butt;stroke-linejoin:miter;stroke-opacity:1"/><path d="M112.49 100.914c-10.246 7.013-22.177 15.028-27.412 27.298-3.561 15.017-10.451 24.582-14.385 35.919-5.01 14.44-9.279 27.697-15.314 39.195-7.373 14.044-22.506 23.918-30.984 29.72 34.637 57.891 103.371 61.996 148.424 37.583l-55.685-164.71c-.783-2.815 1.81-10.696-4.643-5.005z" style="fill:#fff;fill-rule:evenodd;stroke:#231f20;stroke-width:1px;stroke-linecap:butt;stroke-linejoin:miter;stroke-opacity:1"/><path d="M167.68 275.99c20.66-5.659 35.65-20.387 44.444-29.444-13.634-9.277-26.62-23.101-33.61-50.831-.4-5.82-2.991-5.79-5.556-5.834-2.703-1.414-5.727-2.98-8.078-5.62-14.673-16.473-37.271-51.85-49.698-84.655-.782 59.34 21.05 69.273 23.61 106.664.685 25.206 5.592 49.62 28.888 69.72z" style="fill:#828f97;fill-opacity:1;fill-rule:evenodd;stroke:none;stroke-width:1px;stroke-linecap:butt;stroke-linejoin:miter;stroke-opacity:1"/><path d="M240.186 2.4v167.402c0 63.39-53.239 114.786-118.876 114.786-65.68 0-118.91-51.395-118.91-114.786V2.4h237.786z" style="fill:none;fill-opacity:1;stroke:#231f20;stroke-width:4.80000019;stroke-linecap:butt;stroke-linejoin:miter;stroke-miterlimit:4;stroke-dasharray:none;stroke-opacity:1"/></svg>
